packages/sources/icons/src/vitamix/money-euro-box-line.svg

<svg width="16" height="16" viewBox="0 0 16 16" xmlns="http://www.w3.org/2000/svg"><path fill-rule="evenodd" clip-rule="evenodd" d="M1.99998 2H14C14.3682 2 14.6666 2.29848 14.6666 2.66667V13.3333C14.6666 13.7015 14.3682 14 14 14H1.99998C1.63179 14 1.33331 13.7015 1.33331 13.3333V2.66667C1.33331 2.29848 1.63179 2 1.99998 2ZM2.66665 3.33333V12.6667H13.3333V3.33333H2.66665ZM9.99998 7.33334H6.69998C6.81748 6.75645 7.23061 6.28435 7.78682 6.09137C8.34302 5.8984 8.95977 6.01318 9.40931 6.39334L10.5433 5.638C9.74809 4.7713 8.51974 4.44927 7.40159 4.81438C6.28344 5.17949 5.48182 6.16435 5.35131 7.33334H4.66665V8.66667H5.35198C5.48294 9.83505 6.2843 10.8192 7.4019 11.1843C8.51949 11.5493 9.74729 11.2278 10.5426 10.362L9.40931 9.60667C8.95977 9.98682 8.34302 10.1016 7.78682 9.90863C7.23061 9.71566 6.81748 9.24356 6.69998 8.66667H9.99998V7.33334Z"/></svg>

<svg width="16" height="16" xmlns="http://www.w3.org/2000/svg"><path fill-rule="evenodd" clip-rule="evenodd" d="M2 2h12c.368 0 .667.298.667.667v10.666A.667.667 0 0 1 14 14H2a.667.667 0 0 1-.667-.667V2.667C1.333 2.298 1.632 2 2 2Zm.667 1.333v9.334h10.666V3.333H2.667Zm7.333 4H6.7a1.667 1.667 0 0 1 2.71-.94l1.133-.755a3 3 0 0 0-5.192 1.695h-.684v1.334h.685a3 3 0 0 0 5.19 1.695L9.41 9.607a1.667 1.667 0 0 1-2.709-.94H10V7.333Z"/></svg>
